svgs/regular/seal.svg

<svg xmlns="http://www.w3.org/2000/svg" viewBox="0 0 512 512"><!--! Font Awesome Pro 6.1.1 by @fontawesome - https://fontawesome.com License - https://fontawesome.com/license (Commercial License) Copyright 2022 Fonticons, Inc. --><path d="M222.1 18.41C240.8-.3309 271.2-.3309 289.9 18.41L335.5 64H400C426.5 64 448 85.49 448 112V176.5L493.6 222.1C512.3 240.8 512.3 271.2 493.6 289.9L448 335.5V400C448 426.5 426.5 448 400 448H335.5L289.9 493.6C271.2 512.3 240.8 512.3 222.1 493.6L176.5 448H112C85.49 448 64 426.5 64 400V335.5L18.41 289.9C-.3328 271.2-.3328 240.8 18.41 222.1L64 176.5V112C64 85.49 85.49 64 112 64H176.5L222.1 18.41zM210.4 97.94C201.4 106.9 189.2 112 176.5 112H112V176.5C112 189.2 106.9 201.4 97.94 210.4L52.35 256L97.94 301.6C106.9 310.6 112 322.8 112 335.5V400H176.5C189.2 400 201.4 405.1 210.4 414.1L256 459.6L301.6 414.1C310.6 405.1 322.8 400 335.5 400H400V335.5C400 322.8 405.1 310.6 414.1 301.6L459.6 256L414.1 210.4C405.1 201.4 400 189.2 400 176.5V112H335.5C322.8 112 310.6 106.9 301.6 97.94L256 52.36L210.4 97.94z"/></svg>

<svg xmlns="http://www.w3.org/2000/svg" viewBox="0 0 512 512"><!--! Font Awesome Pro 6.4.2 by @fontawesome - https://fontawesome.com License - https://fontawesome.com/license (Commercial License) Copyright 2023 Fonticons, Inc. --><path d="M210.4 97.9c-9 9-21.2 14.1-33.9 14.1H112v64.5c0 12.7-5.1 24.9-14.1 33.9L52.4 256l45.6 45.6c9 9 14.1 21.2 14.1 33.9V400h64.5c12.7 0 24.9 5.1 33.9 14.1L256 459.6l45.6-45.6c9-9 21.2-14.1 33.9-14.1H400V335.5c0-12.7 5.1-24.9 14.1-33.9L459.6 256l-45.6-45.6c-9-9-14.1-21.2-14.1-33.9V112H335.5c-12.7 0-24.9-5.1-33.9-14.1L256 52.4 210.4 97.9zm11.6-79.5c18.7-18.7 49.1-18.7 67.9 0L335.5 64H400c26.5 0 48 21.5 48 48v64.5l45.6 45.6c18.7 18.7 18.7 49.1 0 67.9L448 335.5V400c0 26.5-21.5 48-48 48H335.5l-45.6 45.6c-18.7 18.7-49.1 18.7-67.9 0L176.5 448H112c-26.5 0-48-21.5-48-48V335.5L18.4 289.9c-18.7-18.7-18.7-49.1 0-67.9L64 176.5V112c0-26.5 21.5-48 48-48h64.5l45.6-45.6z"/></svg>
